icons/svg/seamark/notice_template.svg

<?xml version="1.0" encoding="UTF-8" standalone="no"?>
<svg
   xmlns:dc="http://purl.org/dc/elements/1.1/"
   xmlns:cc="http://creativecommons.org/ns#"
   xmlns:rdf="http://www.w3.org/1999/02/22-rdf-syntax-ns#"
   xmlns:svg="http://www.w3.org/2000/svg"
   xmlns="http://www.w3.org/2000/svg"
   xmlns:sodipodi="http://sodipodi.sourceforge.net/DTD/sodipodi-0.dtd"
   xmlns:inkscape="http://www.inkscape.org/namespaces/inkscape"
   width="320"
   height="320"
   id="svg2"
   version="1.1"
   inkscape:version="0.48.4 r9939"
   sodipodi:docname="notice_template.svg">
  <defs
     id="defs13">
    <inkscape:path-effect
       effect="gears"
       id="path-effect3774"
       is_visible="true"
       teeth="6"
       phi="-1.2" />
    <inkscape:path-effect
       effect="bend_path"
       id="path-effect3772"
       is_visible="false"
       bendpath="m 95.790098,316.51174 c 144.429032,-206.42506 223.313032,-11.7428 339.548092,0"
       prop_scale="1.19"
       scale_y_rel="false"
       vertical="false"
       bendpath-nodetypes="cc" />
  </defs>
  <sodipodi:namedview
     pagecolor="#ffffff"
     bordercolor="#666666"
     borderopacity="1"
     objecttolerance="10"
     gridtolerance="10"
     guidetolerance="10"
     inkscape:pageopacity="0"
     inkscape:pageshadow="2"
     inkscape:window-width="1920"
     inkscape:window-height="1004"
     id="namedview11"
     showgrid="true"
     inkscape:zoom="1.6275861"
     inkscape:cx="72.573216"
     inkscape:cy="163.49148"
     inkscape:window-x="1680"
     inkscape:window-y="0"
     inkscape:window-maximized="1"
     inkscape:current-layer="svg2"
     inkscape:snap-bbox="true"
     inkscape:object-nodes="true"
     inkscape:snap-midpoints="true"
     inkscape:snap-grids="true"
     inkscape:snap-bbox-edge-midpoints="true"
     showguides="true"
     inkscape:guide-bbox="true">
    <inkscape:grid
       type="xygrid"
       id="grid2990"
       empspacing="5"
       visible="true"
       enabled="true"
       snapvisiblegridlinesonly="true"
       spacingx="10px"
       spacingy="10px"
       dotted="false" />
    <sodipodi:guide
       orientation="1,0"
       position="55.202458,260.58927"
       id="guide3872" />
    <sodipodi:guide
       orientation="1,0"
       position="265.17816,340"
       id="guide3874" />
    <sodipodi:guide
       orientation="0,1"
       position="317.80107,264.96094"
       id="guide3876" />
    <sodipodi:guide
       orientation="0,1"
       position="325.098,54.759006"
       id="guide3878" />
  </sodipodi:namedview>
  <metadata
     id="metadata2975">image/svg+xmlen<rdf:RDF>
  <cc:Work
     rdf:about="">
    <dc:format>image/svg+xml</dc:format>
    <dc:type
       rdf:resource="http://purl.org/dc/dcmitype/StillImage" />
    <dc:title />
  </cc:Work>
</rdf:RDF>
</metadata>
  <rect
     style="opacity:1;color:#000000;fill:#ff0000;fill-opacity:1;fill-rule:nonzero;stroke:#858585;stroke-width:0;marker:none;visibility:visible;display:inline;overflow:visible;enable-background:accumulate;stroke-opacity:1;stroke-miterlimit:4;stroke-dasharray:none"
     id="rect2988"
     width="200.50764"
     height="200.50764"
     x="59.746178"
     y="59.746178" />
  <path
     style="opacity:0.57599995999999998;fill:#fefefe;stroke:#3d3d3d;stroke-width:10;stroke-linecap:butt;stroke-linejoin:round;stroke-miterlimit:4;stroke-opacity:1;stroke-dasharray:none;fill-opacity:1"
     d="M 265.17816,55.03906 315,160 265.17816,265.24099 z"
     id="path2996"
     inkscape:connector-curvature="0"
     sodipodi:nodetypes="cccc" />
  <path
     style="opacity:0.57599995999999998;fill:#fefefe;stroke:#3d3d3d;stroke-width:10;stroke-linecap:butt;stroke-linejoin:round;stroke-miterlimit:4;stroke-opacity:1;stroke-dasharray:none;fill-opacity:1"
     d="M 265.17816,265.24099 160,315 55.202458,265.24099 z"
     id="path2998"
     inkscape:connector-curvature="0"
     sodipodi:nodetypes="cccc" />
  <path
     style="opacity:0.57599995999999998;fill:#fefefe;stroke:#3d3d3d;stroke-width:10;stroke-linecap:butt;stroke-linejoin:round;stroke-miterlimit:4;stroke-opacity:1;stroke-dasharray:none;fill-opacity:1"
     d="m 4.9999999,160 50.2024581,105.24099 0,-210.20193 z"
     id="path3000"
     inkscape:connector-curvature="0"
     sodipodi:nodetypes="cccc" />
  <path
     style="opacity:0.57599995999999998;fill:#fefefe;stroke:#3d3d3d;stroke-width:10;stroke-linecap:butt;stroke-linejoin:round;stroke-miterlimit:4;stroke-opacity:1;stroke-dasharray:none;fill-opacity:1"
     d="M 55.202458,55.03906 160,4.9999967 265.17816,55.03906 z"
     id="path3002"
     inkscape:connector-curvature="0"
     sodipodi:nodetypes="cccc" />
  <path
     style="opacity:0.57599995999999998;fill:#fefefe;stroke:#3d3d3d;stroke-width:10;stroke-linecap:butt;stroke-linejoin:round;stroke-miterlimit:4;stroke-opacity:1;stroke-dasharray:none;fill-opacity:1"
     d="m 315,55.03906 0,210.20193 -49.82184,0 0,-210.20193 z"
     id="path3004"
     inkscape:connector-curvature="0"
     sodipodi:nodetypes="ccccc" />
  <path
     style="opacity:0.57599995999999998;fill:#fefefe;stroke:#3d3d3d;stroke-width:10;stroke-linecap:butt;stroke-linejoin:round;stroke-miterlimit:4;stroke-opacity:1;stroke-dasharray:none;fill-opacity:1"
     d="m 55.202458,55.03906 0,210.20193 -50.2024581,0 0,-210.20193 z"
     id="path3004-0"
     inkscape:connector-curvature="0"
     sodipodi:nodetypes="ccccc" />
  <path
     style="opacity:0.57599995999999998;fill:#fefefe;stroke:#3d3d3d;stroke-width:10;stroke-linecap:butt;stroke-linejoin:round;stroke-miterlimit:4;stroke-opacity:1;stroke-dasharray:none;fill-opacity:1"
     d="m 265.17816,55.03906 -209.975702,0 0,-50.0390633 209.975702,0 z"
     id="path3004-0-5"
     inkscape:connector-curvature="0"
     sodipodi:nodetypes="ccccc" />
  <path
     style="opacity:0.57599995999999998;fill:#fefefe;stroke:#3d3d3d;stroke-width:10;stroke-linecap:butt;stroke-linejoin:round;stroke-miterlimit:4;stroke-opacity:1;stroke-dasharray:none;fill-opacity:1"
     d="M 265.17816,315.1536 55.202458,315 l 0,-49.75901 209.975702,0 z"
     id="path3004-0-5-5"
     inkscape:connector-curvature="0"
     sodipodi:nodetypes="ccccc" />
  <rect
     style="opacity:1;color:#000000;fill:#fefefe;fill-opacity:1;fill-rule:nonzero;stroke:none;stroke-width:30;marker:none;visibility:visible;display:inline;overflow:visible;enable-background:accumulate"
     id="rect2988-9"
     width="159.99998"
     height="159.99998"
     x="80.000008"
     y="80" />
  <path
     style="opacity:0.61199999;fill:none;stroke:#373737;stroke-width:10;stroke-linecap:butt;stroke-linejoin:miter;stroke-miterlimit:4;stroke-opacity:1;stroke-dasharray:none"
     d="m 55.202458,55.03906 209.975702,0 0,210.20193 -209.975702,0 z"
     id="path3880"
     inkscape:connector-curvature="0" />
  <path
     style="fill:none;stroke:#ff0000;stroke-width:24.2;stroke-linecap:butt;stroke-linejoin:miter;stroke-opacity:1;stroke-miterlimit:4;stroke-dasharray:none"
     d="M 70,70 250,250"
     id="path3773"
     inkscape:connector-curvature="0" />
</svg>

<svg width="320" height="320" viewBox="0 0 320 320" fill="none" xmlns="http://www.w3.org/2000/svg">
<g clip-path="url(#clip0)">
<path d="M260.254 59.7461H59.7461V260.254H260.254V59.7461Z" fill="#FF0000"/>
<path opacity="0.576" d="M265.178 55.0391L315 160L265.178 265.241V55.0391Z" fill="#FEFEFE" stroke="#3D3D3D" stroke-width="10" stroke-linejoin="round"/>
<path opacity="0.576" d="M265.178 265.24L160 314.999L55.2024 265.24H265.178Z" fill="#FEFEFE" stroke="#3D3D3D" stroke-width="10" stroke-linejoin="round"/>
<path opacity="0.576" d="M5 160L55.2025 265.241V55.0391L5 160Z" fill="#FEFEFE" stroke="#3D3D3D" stroke-width="10" stroke-linejoin="round"/>
<path opacity="0.576" d="M55.2024 55.0391L160 5L265.178 55.0391H55.2024Z" fill="#FEFEFE" stroke="#3D3D3D" stroke-width="10" stroke-linejoin="round"/>
<path opacity="0.576" d="M315 55.0391V265.241H265.178V55.0391H315Z" fill="#FEFEFE" stroke="#3D3D3D" stroke-width="10" stroke-linejoin="round"/>
<path opacity="0.576" d="M55.2025 55.0391V265.241H5V55.0391H55.2025Z" fill="#FEFEFE" stroke="#3D3D3D" stroke-width="10" stroke-linejoin="round"/>
<path opacity="0.576" d="M265.178 55.0391H55.2024V5H265.178V55.0391Z" fill="#FEFEFE" stroke="#3D3D3D" stroke-width="10" stroke-linejoin="round"/>
<path opacity="0.576" d="M265.178 315.153L55.2024 314.999V265.24H265.178V315.153Z" fill="#FEFEFE" stroke="#3D3D3D" stroke-width="10" stroke-linejoin="round"/>
<path d="M240 80H80V240H240V80Z" fill="#FEFEFE"/>
<path opacity="0.612" d="M55.2024 55.0391H265.178V265.241H55.2024V55.0391Z" stroke="#373737" stroke-width="10"/>
<path d="M70 70L250 250" stroke="#FF0000" stroke-width="24.2"/>
</g>
<defs>
<clipPath id="clip0">
<path d="M0 0H320V320H0V0Z" fill="white"/>
</clipPath>
</defs>
</svg>
